svg/aws.svg

<svg viewBox="0 0 20 20" xmlns="http://www.w3.org/2000/svg">
<rect width="100%" height="100%" fill="#202936"/>
<path d="M6.29074 8.69224C6.29074 8.89802 6.31335 9.06487 6.35293 9.18723C6.39816 9.30959 6.4547 9.44307 6.53386 9.58768C6.56213 9.63217 6.57344 9.67667 6.57344 9.7156C6.57344 9.77122 6.53951 9.82683 6.46601 9.88245L6.10981 10.116C6.05892 10.1494 6.00804 10.1661 5.9628 10.1661C5.90626 10.1661 5.84972 10.1383 5.79318 10.0882C5.71403 10.0048 5.64618 9.91582 5.58964 9.82683C5.5331 9.73228 5.47656 9.62661 5.41436 9.49869C4.97335 10.0104 4.41926 10.2662 3.75208 10.2662C3.27714 10.2662 2.89833 10.1327 2.62128 9.86576C2.34423 9.5988 2.20288 9.24285 2.20288 8.79791C2.20288 8.32516 2.3725 7.9414 2.7174 7.65219C3.06229 7.36298 3.52027 7.21838 4.10263 7.21838C4.29487 7.21838 4.49276 7.23506 4.70196 7.26287C4.91116 7.29068 5.12601 7.33517 5.35217 7.38523V6.97922C5.35217 6.55653 5.26171 6.26176 5.08643 6.08935C4.9055 5.91693 4.60019 5.83351 4.16483 5.83351C3.96694 5.83351 3.76339 5.85575 3.55419 5.90581C3.34499 5.95586 3.14145 6.01704 2.94356 6.09491C2.85309 6.13384 2.78525 6.15609 2.74567 6.16721C2.70609 6.17833 2.67782 6.1839 2.6552 6.1839C2.57605 6.1839 2.53647 6.12828 2.53647 6.01148V5.73896C2.53647 5.64997 2.54778 5.58323 2.57605 5.5443C2.60432 5.50536 2.6552 5.46643 2.73436 5.4275C2.93225 5.32739 3.16972 5.24396 3.44677 5.17722C3.72381 5.10492 4.01782 5.07155 4.32879 5.07155C5.00162 5.07155 5.49352 5.22172 5.81015 5.52205C6.12112 5.82238 6.27943 6.27845 6.27943 6.89024V8.69224H6.29074ZM3.99521 9.53762C4.18179 9.53762 4.37402 9.50425 4.57757 9.43751C4.78111 9.37077 4.96204 9.24841 5.1147 9.08156C5.20517 8.97589 5.27301 8.85909 5.30694 8.72561C5.34086 8.59213 5.36348 8.43084 5.36348 8.24174V8.00814C5.19951 7.96921 5.02424 7.93584 4.84331 7.9136C4.66238 7.89135 4.48711 7.88022 4.31183 7.88022C3.93301 7.88022 3.65596 7.95253 3.46938 8.10269C3.2828 8.25286 3.19233 8.46421 3.19233 8.74229C3.19233 9.0037 3.26018 9.19836 3.40153 9.33184C3.53723 9.47088 3.73512 9.53762 3.99521 9.53762ZM8.53538 10.1383C8.43361 10.1383 8.36576 10.1216 8.32053 10.0827C8.2753 10.0493 8.23572 9.97144 8.2018 9.86576L6.8731 5.56654C6.83918 5.45531 6.82222 5.38301 6.82222 5.34407C6.82222 5.25509 6.86745 5.20503 6.95791 5.20503H7.51201C7.61943 5.20503 7.69294 5.22172 7.73251 5.26065C7.77775 5.29402 7.81167 5.37188 7.84559 5.47756L8.79547 9.15942L9.6775 5.47756C9.70577 5.36632 9.73969 5.29402 9.78492 5.26065C9.83015 5.22728 9.90931 5.20503 10.0111 5.20503H10.4634C10.5708 5.20503 10.6443 5.22172 10.6896 5.26065C10.7348 5.29402 10.7744 5.37188 10.797 5.47756L11.6903 9.20392L12.6685 5.47756C12.7024 5.36632 12.742 5.29402 12.7816 5.26065C12.8268 5.22728 12.9003 5.20503 13.0021 5.20503H13.5279C13.6183 5.20503 13.6692 5.24952 13.6692 5.34407C13.6692 5.37188 13.6636 5.39969 13.6579 5.43306C13.6523 5.46643 13.641 5.51093 13.6183 5.5721L12.2557 9.87133C12.2218 9.98256 12.1822 10.0549 12.137 10.0882C12.0918 10.1216 12.0183 10.1439 11.9221 10.1439H11.4359C11.3285 10.1439 11.255 10.1272 11.2097 10.0882C11.1645 10.0493 11.1249 9.977 11.1023 9.86576L10.2259 6.27844L9.35522 9.8602C9.32695 9.97144 9.29302 10.0437 9.24779 10.0827C9.20256 10.1216 9.1234 10.1383 9.02163 10.1383H8.53538ZM15.8008 10.2885C15.5068 10.2885 15.2128 10.2551 14.9301 10.1883C14.6474 10.1216 14.4269 10.0493 14.2799 9.96588C14.1894 9.91582 14.1272 9.8602 14.1046 9.81015C14.082 9.76009 14.0707 9.70447 14.0707 9.65442V9.37077C14.0707 9.25397 14.1159 9.19836 14.2007 9.19836C14.2346 9.19836 14.2686 9.20392 14.3025 9.21504C14.3364 9.22617 14.3873 9.24841 14.4438 9.27066C14.6361 9.35409 14.8453 9.42083 15.0658 9.46532C15.2919 9.50981 15.5124 9.53206 15.7386 9.53206C16.0948 9.53206 16.3719 9.47088 16.5641 9.34852C16.7563 9.22616 16.8581 9.04819 16.8581 8.82016C16.8581 8.66443 16.8072 8.53651 16.7054 8.43084C16.6037 8.32516 16.4114 8.23061 16.1344 8.14163L15.3146 7.89135C14.9018 7.76343 14.5965 7.57433 14.4099 7.32405C14.2233 7.07933 14.1272 6.80681 14.1272 6.5176C14.1272 6.28401 14.1781 6.07822 14.2799 5.90025C14.3816 5.72227 14.5173 5.56654 14.687 5.44418C14.8566 5.31626 15.0488 5.22172 15.275 5.15497C15.5011 5.08823 15.7386 5.06042 15.9874 5.06042C16.1118 5.06042 16.2418 5.06599 16.3662 5.08267C16.4962 5.09936 16.615 5.1216 16.7337 5.14385C16.8468 5.17166 16.9542 5.19947 17.056 5.23284C17.1578 5.26621 17.2369 5.29958 17.2935 5.33295C17.3726 5.37744 17.4292 5.42194 17.4631 5.47199C17.497 5.51649 17.514 5.57767 17.514 5.65553V5.91693C17.514 6.03373 17.4687 6.09491 17.3839 6.09491C17.3387 6.09491 17.2652 6.07266 17.1691 6.02817C16.8468 5.88356 16.4849 5.81126 16.0835 5.81126C15.7612 5.81126 15.5068 5.86131 15.3315 5.96699C15.1562 6.07266 15.0658 6.23395 15.0658 6.46198C15.0658 6.61771 15.1223 6.75119 15.2354 6.85687C15.3485 6.96254 15.5577 7.06821 15.8573 7.16276L16.6602 7.41304C17.0673 7.54096 17.3613 7.71893 17.5366 7.94697C17.7119 8.175 17.7967 8.4364 17.7967 8.72561C17.7967 8.96476 17.7458 9.18167 17.6497 9.37077C17.5479 9.55987 17.4122 9.72672 17.2369 9.8602C17.0616 9.99925 16.8524 10.0994 16.6093 10.1717C16.3549 10.2495 16.0892 10.2885 15.8008 10.2885Z" fill="white"/>
<path d="M15.4673 12.0515C16.0722 11.9792 17.4066 11.8235 17.6441 12.1238C17.8815 12.4186 17.3783 13.6588 17.1522 14.2095C17.0843 14.3763 17.2313 14.4431 17.384 14.3151C18.3791 13.492 18.6392 11.7734 18.4356 11.5231C18.2321 11.2784 16.485 11.0671 15.422 11.8012C15.2581 11.918 15.2863 12.0738 15.4673 12.0515Z" fill="#FF9900"/>
<path d="M9.98284 15.0604C12.3066 15.0604 15.0093 14.3429 16.8694 12.9914C17.1748 12.769 16.909 12.4297 16.598 12.5687C14.5117 13.4364 12.2444 13.8591 10.1807 13.8591C7.12191 13.8591 4.16485 13.0304 1.76755 11.6622C1.55835 11.5398 1.40004 11.7512 1.57531 11.9069C3.79169 13.8758 6.72613 15.0604 9.98284 15.0604Z" fill="#FF9900"/>
</svg>

<svg xmlns="http://www.w3.org/2000/svg" viewBox="0 0 20 20">
  <rect width="100%" height="100%" fill="#202936"/>
  <path fill="#fff" d="M6.3 8.7c0 .2.01.36.05.49.05.12.1.25.18.4.03.04.04.09.04.13 0 .05-.03.1-.1.16l-.36.24a.27.27 0 0 1-.15.05c-.05 0-.11-.03-.17-.08a1.72 1.72 0 0 1-.2-.26l-.18-.33c-.44.51-1 .77-1.66.77-.47 0-.85-.14-1.13-.4A1.42 1.42 0 0 1 2.2 8.8c0-.47.17-.86.52-1.15.34-.29.8-.43 1.38-.43a4.55 4.55 0 0 1 1.25.17v-.41c0-.42-.09-.72-.26-.9-.18-.16-.49-.25-.93-.25a4.56 4.56 0 0 0-1.42.33.35.35 0 0 1-.08.02c-.08 0-.12-.05-.12-.17v-.27c0-.09 0-.16.04-.2a.42.42 0 0 1 .15-.11 3.48 3.48 0 0 1 1.6-.36c.67 0 1.16.15 1.48.45.31.3.47.76.47 1.37v1.8h.01ZM4 9.53c.18 0 .37-.04.58-.1.2-.07.38-.2.53-.36.1-.1.16-.22.2-.35.03-.14.05-.3.05-.49v-.23a4.8 4.8 0 0 0-1.05-.13c-.38 0-.65.07-.84.22a.77.77 0 0 0-.28.64c0 .26.07.46.21.6.14.13.34.2.6.2Zm4.54.6c-.1 0-.17-.02-.22-.06-.04-.03-.08-.1-.12-.21l-1.33-4.3a.96.96 0 0 1-.05-.23c0-.08.05-.13.14-.13h.55c.1 0 .18.01.22.05.05.03.08.11.12.22l.95 3.68.88-3.68c.03-.11.06-.19.1-.22a.4.4 0 0 1 .23-.05h.45c.11 0 .18.01.23.05.04.03.08.11.1.22l.9 3.72.98-3.72a.47.47 0 0 1 .11-.22.37.37 0 0 1 .22-.05h.53c.09 0 .14.04.14.13l-.01.1-.04.13-1.36 4.3c-.04.11-.08.18-.12.22a.37.37 0 0 1-.22.05h-.48c-.11 0-.18-.01-.23-.05-.05-.04-.09-.11-.1-.22l-.88-3.6-.87 3.59c-.03.11-.07.18-.11.22-.05.04-.13.06-.23.06h-.48Zm7.26.15a3.8 3.8 0 0 1-1.52-.32c-.1-.05-.15-.11-.18-.16a.39.39 0 0 1-.03-.16v-.28c0-.12.05-.17.13-.17.03 0 .07 0 .1.02.04 0 .09.03.14.05a3.11 3.11 0 0 0 1.3.26c.35 0 .63-.06.82-.18.2-.12.3-.3.3-.53a.54.54 0 0 0-.15-.39c-.1-.1-.3-.2-.58-.29l-.82-.25a1.73 1.73 0 0 1-.9-.57 1.31 1.31 0 0 1-.13-1.42c.1-.18.24-.33.4-.46.18-.12.37-.22.6-.29a2.5 2.5 0 0 1 1.09-.07 6.3 6.3 0 0 1 .69.15l.23.1c.08.05.14.1.17.14.04.05.05.1.05.19v.26c0 .11-.04.17-.13.17a.6.6 0 0 1-.21-.06 2.62 2.62 0 0 0-1.09-.22c-.32 0-.57.05-.75.16a.53.53 0 0 0-.26.5c0 .15.05.28.17.39.1.1.32.2.62.3l.8.25c.4.13.7.3.88.54.17.23.26.49.26.78a1.41 1.41 0 0 1-.56 1.13c-.18.14-.39.24-.63.31-.26.08-.52.12-.8.12Z"/>
  <path fill="#F90" d="M15.47 12.05c.6-.07 1.94-.23 2.17.07.24.3-.26 1.54-.49 2.09-.07.17.08.23.23.1 1-.82 1.26-2.54 1.06-2.79-.2-.24-1.96-.45-3.02.28-.16.12-.13.27.05.25Z"/>
  <path fill="#F90" d="M9.98 15.06c2.33 0 5.03-.72 6.89-2.07.3-.22.04-.56-.27-.42a17.03 17.03 0 0 1-14.83-.9c-.21-.13-.37.08-.2.24a12.58 12.58 0 0 0 8.41 3.15Z"/>
</svg>
